X: 26
T:Dancing Bear
R:reel
Z:Added by Alf Warnock
M:4/4
L:1/8
K:C
e2A2 ABcd|e2A2 A2AB|c2c2 B2c2|d4 c2d2|
e2A2 ABcd|e2A2 A2AB|cBAc BAGA|A4 A4|
e2A2 ABcd|e2A2 A2AB|c2c2 B2c2|d4 c2d2|
e2a2 e2a2|e2A2 A2AB|cBAc BAGA|A4 A2AB||
|:c2e2 dcB2|c2e2 dcB2|gdBd gdBd|A2f2 e2^g2|
a3e c2B2|AGAB cde2|fedc BAGB|A4 A4:|

